src/img/calc/redface.svg

<svg width="44" height="60" viewBox="0 0 44 60" fill="none" xmlns="http://www.w3.org/2000/svg">
<path d="M14.4824 34.6416C14.4824 34.6416 13.9096 45.677 9.5176 51.7224C5.79398 56.9042 0.0653381 59.2073 0.0653381 59.2073C0.0653381 59.2073 9.13569 56.6163 12.2864 50.0911C15.9146 42.5103 14.4824 34.6416 14.4824 34.6416Z" fill="#D77C69"/>
<path d="M26.99 47.0202C26.99 47.0202 29.4724 47.5 33.3869 46.7323C37.397 45.8687 43.9849 45.8687 43.6985 57.4798C43.6985 57.4798 43.2211 49.995 39.0201 48.0758C34.6282 46.0606 29.8543 49.1313 26.99 47.0202Z" fill="#D77C69"/>
<path d="M9.32666 59.1113C9.32666 59.1113 16.0101 58.7274 19.5427 57.384C23.0754 56.1365 26.4171 58.5355 26.4171 58.5355C26.4171 58.5355 23.4573 57.5759 20.8794 58.1517C18.2061 58.8234 12.4774 59.783 9.32666 59.1113Z" fill="#D77C69"/>
<path d="M28.3266 57.4799C28.3266 57.4799 27.9447 55.5607 29.9498 54.4092C32.4322 52.9698 33.2915 50.5708 33.2915 50.5708C33.2915 50.5708 33.2915 52.394 31.8593 53.8334C30.6181 55.0809 28.804 55.5607 28.3266 57.4799Z" fill="#D77C69"/>
<path d="M35.392 7.86875C35.392 7.86875 35.392 7.96471 35.392 7.86875C35.392 7.96471 35.392 7.96471 35.392 7.86875ZM28.3266 0.959656C34.7236 0.479858 38.1608 3.26269 35.9648 8.34855C35.9648 8.34855 39.2111 4.31824 36.5377 1.63137C33.6734 -1.24741 23.4573 -1.24741 14.2915 7.96471C14.3869 7.96471 22.0251 1.53541 28.3266 0.959656ZM20.4975 6.04552C35.5829 0.287939 35.392 7.19703 35.392 7.86875C35.6784 -3.26257 20.4975 6.04552 20.4975 6.04552ZM33.8643 8.25259C40.9296 11.4193 37.5879 17.9445 38.3518 21.591C39.0201 25.1415 43.3166 27.1566 43.3166 27.1566C37.397 22.2627 39.9749 20.0556 39.3065 14.8738C38.5427 9.21218 33.8643 8.25259 33.8643 8.25259ZM36.7286 32.8182C40.1658 33.2021 39.1156 35.0253 39.1156 35.0253C41.0251 32.7223 37.6834 32.6263 37.6834 32.6263C37.6834 32.6263 39.1156 32.3384 39.9749 31.7627C41.598 30.7071 40.2613 29.3637 40.2613 29.3637C42.8392 28.8839 43.0302 27.4445 43.0302 27.4445C41.5025 28.9799 39.4975 28.9799 39.4975 28.9799C41.9799 31.1869 36.7286 32.8182 36.7286 32.8182ZM24.794 27.6364C29.8543 25.6213 26.799 19.4799 26.799 19.4799C26.799 19.4799 27.9447 23.2223 26.5126 25.0455C24.603 27.5405 19.9246 27.7324 18.7789 31.9546C17.4422 36.9445 22.9799 39.9193 22.9799 39.9193C17.3467 35.2172 19.7337 29.6516 24.794 27.6364ZM39.6884 37.8081C39.6884 36.6566 39.1156 35.4092 39.1156 35.4092C39.1156 35.4092 39.7839 38.192 38.0653 38.7677C34.8191 39.8233 24.4121 37.6162 22.1206 31.5708C22.1206 31.5708 22.1206 33.7778 24.794 35.889C24.794 35.889 26.4171 37.3283 29.2814 38.3839C28.2312 38.7677 27.1809 39.9193 26.2261 42.798C24.8895 46.7324 24.6985 51.9142 24.6985 51.9142C26.608 42.4142 27.5628 41.0708 29.9498 39.7273C30.6181 39.3435 31.3819 39.2475 32.1457 39.1516C35.4874 39.8233 37.4925 39.9193 38.5427 39.4395C39.6884 39.0556 39.6884 38.192 39.6884 37.8081ZM34.7236 9.59602C27.6583 22.3586 9.99498 21.3031 9.99498 21.3031C32.1457 23.99 34.7236 9.59602 34.7236 9.59602ZM4.45729 19.5758C5.6985 11.6112 15.6281 5.75764 15.6281 5.75764C15.6281 5.75764 5.22111 10.3637 3.59799 19.5758C1.30654 32.3384 12.3819 35.2172 12.3819 35.2172C9.8995 34.3536 3.12061 28.5001 4.45729 19.5758Z" fill="#D77C69"/>
</svg>

<svg width="44" height="60" fill="none" xmlns="http://www.w3.org/2000/svg"><path d="M14.482 34.642s-.572 11.035-4.964 17.08C5.794 56.904.065 59.207.065 59.207s9.07-2.59 12.221-9.116c3.629-7.58 2.196-15.45 2.196-15.45zM26.99 47.02s2.482.48 6.397-.288c4.01-.863 10.598-.863 10.312 10.748 0 0-.478-7.485-4.679-9.404-4.392-2.015-9.166 1.055-12.03-1.056zM9.327 59.111s6.683-.384 10.216-1.727c3.532-1.248 6.874 1.151 6.874 1.151s-2.96-.96-5.538-.383c-2.673.671-8.402 1.631-11.552.96z" fill="#D77C69"/><path d="M28.327 57.48s-.382-1.92 1.623-3.07c2.482-1.44 3.341-3.84 3.341-3.84s0 1.824-1.432 3.263c-1.24 1.248-3.055 1.728-3.532 3.647zM35.392 7.869s0 .096 0 0c0 .096 0 .096 0 0zM28.327.959c6.397-.48 9.834 2.304 7.638 7.39 0 0 3.246-4.03.573-6.718-2.865-2.878-13.08-2.878-22.246 6.334.095 0 7.733-6.43 14.035-7.005zm-7.83 5.087C35.584.288 35.392 7.197 35.392 7.869c.286-11.132-14.895-1.823-14.895-1.823zm13.367 2.207c7.066 3.166 3.724 9.692 4.488 13.338.668 3.55 4.965 5.566 4.965 5.566-5.92-4.894-3.342-7.101-4.01-12.283-.764-5.662-5.443-6.621-5.443-6.621zm2.865 24.565c3.437.384 2.387 2.207 2.387 2.207 1.91-2.303-1.433-2.399-1.433-2.399s1.433-.288 2.292-.863c1.623-1.056.286-2.4.286-2.4 2.578-.48 2.77-1.918 2.77-1.918-1.529 1.535-3.533 1.535-3.533 1.535 2.482 2.207-2.77 3.838-2.77 3.838zm-11.935-5.182c5.06-2.015 2.005-8.156 2.005-8.156s1.146 3.742-.286 5.566c-1.91 2.495-6.588 2.686-7.734 6.909-1.337 4.99 4.2 7.964 4.2 7.964-5.632-4.702-3.245-10.267 1.815-12.283zm14.894 10.172c0-1.151-.572-2.399-.572-2.399s.668 2.783-1.05 3.359c-3.247 1.055-13.654-1.152-15.945-7.197 0 0 0 2.207 2.673 4.318 0 0 1.623 1.44 4.487 2.495-1.05.384-2.1 1.535-3.055 4.414-1.336 3.934-1.527 9.116-1.527 9.116 1.909-9.5 2.864-10.843 5.25-12.187.67-.383 1.433-.48 2.197-.575 3.341.671 5.346.767 6.397.288 1.145-.384 1.145-1.248 1.145-1.632zM34.724 9.596C27.658 22.359 9.995 21.303 9.995 21.303 32.145 23.99 34.724 9.596 34.724 9.596zm-30.267 9.98C5.7 11.61 15.628 5.758 15.628 5.758S5.221 10.364 3.598 19.576c-2.291 12.762 8.784 15.641 8.784 15.641C9.9 34.354 3.12 28.5 4.457 19.576z" fill="#D77C69"/></svg>
